X: 1
T: Brudmarsch fr\aan Hellstedt
T: Bridal March from Hellstedt
O: Sweden
R: g\aangl\aat
Z: John Chambers <jc@trillian.mit.edu> http://trillian.mit.edu/~jc/music/
M: 2/4
L: 1/16
K: C
EF \
| "C"G4 G^FGA | G2F2 E2CE | GAGE CEGc | e6 Bc \
| "Dm"d4 dcde | "G7"f2d2 B2G2 | "C"c3c egec | G2F2 E2"(G7)"F2 |
| "C"G4 G^FGA | G2F2 E2CE | GAGE CEGc | e6 Bc \
| "Dm"d3e "G7"dcde | fefa g2B2 | "C"d2c2 "G7"Bced | "C"c6 :|
|: g2 \
| "F"a4 agab | c'3b c'2a2 | "C"g3^f gag=f | e4 Gceg \
| "Dm"f3e f2d2 | "G7"B4 GBdf | "C"e3d edef | g2g2 "C7"e2c2 |
| "F"a4 agab | c'3b c'2a2 | "C"g3^f gag=f | e4 Gceg \
| "G7"g2ag fedc | B2a2 g2B2 | "C"d2c2 "G7"Bced | "C"c6 :|
